!!!COM: Anonymous
!!!CDT: [?]
!!!OTL@@LAT: Eheu quid homines sumus
!!!TXO: Latin
!!!ODT: 
!!!GTL: Hymnbook E
!!!ARL: Opactwo św. Wojciecha, Staniątki 
!!!voices:	2
**kern	**kern	**text
*staff2	*staff1	*staff1
*I"Basso	*I"Canto	*
=1-	=1-	=1-
*clefF4	*clefG2	*
*k[b-e-]	*k[b-e-]	*
*M3/2	*M3/2	*
2r	2r	.
2r	2r	.
2C/	2g/	E-
=2	=2	=2
1.C	2.cc\	-heu
.	4dd\	.
.	2ee-\	qui
=3	=3	=3
1BB-	2.dd\	ho-
.	4ee-\	-mi-
2AA-/	2cc\	-nes
=4	=4	=4
1GG	2bn\	su-
.	2g/	-mus
2EE-/	4b-\	E-
.	4cc\	-va
=5	=5	=5
1FF	2.a-/	nes-
.	4a-/	-ci-
2GG/	2g/	-mus
=6	=6	=6
1AA-	2.g/	sic-
.	4a-/	-ut-
2AA-/	2f#/	-i
=7	=7	=7
1GG	2g/	su-
.	2g/	-mus
2r	2r	.
=8||	=8||	=8||
2r	2r	.
2r	2r	.
2FF#/	4dd\	Va-
.	4cc\	-na
=9	=9	=9
1GG	2bn\	va-
.	2g/	-na
2BBn/	2dd\	est
=10	=10	=10
2.C/	2.ee-\	ho-
4D\	4dd\	-mi-
4E-\	2cc\	-nis
4F\	.	.
=11	=11	=11
1G	1dd	fors
2E-\	4g/	quam
.	4g/	des-
=12	=12	=12
2.F\	2.a/	-po-
4G\	4bn\	-li-
2A-\	2cc\	-at
=13	=13	=13
1F	2.cc\	cru-
.	4dd\	-de-
2G\	4bn\	-lis
.	4cc\	.
=14	=14	=14
1C	1cc	mors.
2r	2r	.
==	==	==
*-	*-	*-
!!!GTL: Hymnbook E
!!!EFL: 100/117
!!!YEM: Creative Commons CC/BY/NC/SA 4.0
!!!ENC: Marcin Konik
!!!END: 
!!!EED: Marcin Konik
!!!EEV: 
!!!ONB: Translated from MusicXML and edited by Marcin Konik
!!!CharacterEncoding: utf-8
!!!RDF**kern: l=long note in original notation
!!!RDF**kern: i=editorial accidental
!!muse2ps: z14jc180F
